X: 49
T:Ymdaith Gwyr Penllyn
M:2/2
L:1/8
Q:160
C:Trad
S:Blodau'r Grug Collection Vol. 1
R:March
A:Wales
Z:brian_martin12345@yahoo.com
K:G
(3def|g2dBG2B2|c2fff2d2|d2dc BdBG|A2AAA2(3def|g2dBG2B2|c2fff2d2|!
dcBc Aedc|B2G2G2:||
z2|F2B2GBdB|D2D2GBdB|e2d2cBAG|!d2d2d2(3def|g2dBG2B2|c2fff2d2|
dcBc Aedc|B2G2G2:||

